!!!OTL: Vater Noah, Weinerfinder.
!!!OTL-incipit: VATER NOAH WEINERFINDER
!!!COM: Nach der Volksweise
!!!ODT: 1785
!!!ARE: Europa, Mitteleuropa, Deutschland
!!!SCT: F0738A
!!!TXL: @@DE
!!!YEM: Copyright 1995, estate of Helmut Schaffrath.
**kern	**text
*ICvox	*
*clefG2	*
*M6/8	*
*k[]	*
*C:	*
=1	=1
!LO:TX:a:t=Fröhlich.	!
{4cc	Va-
8cc	-ter
16ddq	.
8ccL	No-
8bJ	.
8a	-ah,
=2	=2
8gL	Weiner-
8aJ	.
8f#	.
4g	-fin-
8g}	-der,
=3	=3
{8.ccL	dein
16bJ	.
8cc	Ge-
8ddL	-dächtniß
8ffJ	.
8dd	.
=4	=4
8.b\L	fei-
16aJ	.
8b	-ern
4.cc}	wir;
=5	=5
{4dd	du,
8dd	der
4dd	Sorgen
8b	.
=6	=6
8aL	Ue-
8bJ	.
8cc/	-berwinder,
4b/	.
8g}	.
=7	=7
{4dd	un-
8dd	-ſer
8ddL	Dank
8ccJ	.
8b	ge-
=8	=8
16bq	.
8aL	-bühret
8gJ	.
8a	.
4g	dir!
8r}	.
=9	=9
{4cc	Ja,
8g	für
4ee	die-
8cc	-ſen
=10	=10
8ggL	edlen
8eeJ	.
8cc	.
4.ff}	Trank,
=11	=11
{4ee	ſagt
8ee	man
8.ffL	dir
16eeJ	.
8dd	o
=12	=12
(8cc/L	No-
8ddJ)	.
8b/	-ah,
4cc/	Dank.
8r}	.
=13	=13
!LO:TX:a:t=Alle.	!
4cc/	Ja,
8g	für
4ee/	die-
8cc/	-ſen
=14	=14
8ggL	ed-
8eeJ	.
8cc	-len
4.ff	Trank,
=15	=15
4ee	ſa-
8ee	-gen
8.ffL	wir
16eeJ	.
8dd/	dir,
=16	=16
8ccL	No-
8dd/J	.
8b/	-ah,
4cc/	Dank!
8r	.
==	==
!!!AGN: Geselligkeits -, Trink - Lied
!!!ONB: ESAC (Essen Associative Code) Database: FINK
!!!AMT: compound duple
!!!AIN: vox
!!!EED: Helmut Schaffrath
!!!EEV: 1.0
!!!RDF**kern: > = above
!!!GTL: Liedertafel- und Gesellschaftslieder
!!Text: C. Kalkbrenner
!!!source: Musikalischer Hausschatz der Deutschen. Eine Sammlung von über 1000 Liedern und Gesängen mit Singstimmen und Klavierbegleitung. Leipzig, Litterarisches Verlags-Haus.
!!!page: 505
!!!URL-scan: https://www.digitale-sammlungen.de/en/view/bsb11144622?page=456
!!!ENC: Anna Maria Matuszewska
!!!EEV: 2024/08/05
*-	*-
